X: 28697
T: My Cape Breton Home
R: waltz
M: 3/4
K: Gmajor
d2|:g3(g fg)|a2 (f2 d2)|c3(c Bc)|!tenuto!d2 (!tenuto!B2 !tenuto!G2)|
g3(g fg)|a2( f2 d2)|c3(c Bc)|d f3 f2|
g3 (g fg)|a2 (f2 d2)|c3(c Bc)|d2 (B2 G2)|
Ec3 cB|A3(G F<G)|G6-|1 G4d2:|2 G4 D2||
|:(D2G2) B2|c3(c Bc)|d2 B2 zG|A2 (G2 E2)|
(D G3) B2|c3(c Bc)|dg3 gf|d3 (c A2)|
(D2G2) B2|c3(c Bc)|d2 B2 zG|A2 (G2 E2)|
D g3 gf|d4(cA)|{A}G6|1 G4 D2:|2 G4||

